!!!OTL: 782a. Scheiden
!!!ARE: Europa, Mitteleuropa, Deutschland, Sueddeutschland
!!!SCT: E0782A
!!!TXL: @@DE
!!!YEM: Copyright 1995, estate of Helmut Schaffrath.
**kern	**text
*ICvox	*
*M3/4	*
*k[b-]	*
*F:	*
!LO:TX:a:t=Langsam.	!
!LO:TX:a:t=G. Scherer, Volksl. Nr. 27.	!
!LO:TX:a:t=Süddeutſche Melodie.	!
{8.f	Wa-
16g	-rum
=1	=1
4a	biſt
4a	du
16ccL	denn
16b-J	.
16aL	ſo
16b-J	.
=2	=2
4cc	trau-
4ff}	-rig?
{8a	Jch
8cc	bin
=3	=3
8ddL	al-
8ccJ	.
8b-L	-ler
8aJ	.
8g	Freu-
8b-	-den
=4	=4
4a	voll!
4r}	.
{8a	Meinſt,
8cc	ich
=5	=5
8b-L	könn-
8aJ	.
4g	-te
8b-	dich
8dd	ver-
=6	=6
8ccL	-laſ-
8b-J	.
4a}	-ſen?
{8a	Meinſt,
8cc	ich
=7	=7
8b-L	könn-
8aJ	.
4g	-te
8b-	dich
8dd	ver-
=8	=8
8ccL	-laſ-
8b-J	.
4a}	-ſen?
{8.f	Du
16g	ge-
=9	=9
4a	-fällſt
4a	mir
16ccL	gar
16b-J	.
16a\L	ſo
16b-J	.
=10	=10
(4cc	wohl,
4ff)}	.
{8a	du
8cc	ge-
=11	=11
8ddL	-fällſt
8ccJ	.
8b-L	mir
8aJ	.
8g	gar
8b-	ſo
=12	=12
4a	wohl.
4r}	.
==	==
!!!AGN: Abschieds - Lied, Liebe
!!!ONB: ESAC (Essen Associative Code) Database: ERK2
!!!AMT: simple triple
!!!AIN: vox
!!!EED: Helmut Schaffrath
!!!EEV: 1.0
!!!GTL: Abschieds- und Wanderlieder
!!!URL-scan: https://rosdok.uni-rostock.de/mcrviewer/recordIdentifier/rosdok_ppn745177662/iview2/phys_0585.iview2?x=162.60262991727268&y=2116.130419514142&scale=0.7029437510502773&rotation=0&layout=singlePageLayout
!!!ENC: Anna Maria Matuszewska
!!!EEV: 2024/12/17
*-	*-
